X: 29046
T: Neesons Bar
R: waltz
M: 3/4
K: Gmajor
GA|B2 G2 B2|d2 B2 d2|e2 g2 e2|d4 BA|G3 F E2|D2 G2 A2|B3 d B2|A4
GA|B2 G2 B2|d2 B2 d2|e2 g3 e|d4 c2|B2 A2 G2|E4 D2|E3 G A2|H G4:|
K:D
FG|A2 d2 e2|fe dc BA|B2 G2 B2|A4 FG|A2 d2 e2|fe dc df|e2 B2 d2|c4
FG|A2 d2 e2|fe dc BA|B2 G2 B2|A4 FG|A2 d2 f2|e3 d c2|d6|!D.C.!=c4||

